svgs/regular/grate.svg

<svg xmlns="http://www.w3.org/2000/svg" viewBox="0 0 448 512"><!--! Font Awesome Pro 6.4.2 by @fontawesome - https://fontawesome.com License - https://fontawesome.com/license (Commercial License) Copyright 2023 Fonticons, Inc. --><path d="M56 32C25.1 32 0 57.1 0 88V256 424c0 30.9 25.1 56 56 56h72 96 96 72c30.9 0 56-25.1 56-56V256 88c0-30.9-25.1-56-56-56H320 224 128 56zm48 48V232H48V88c0-4.4 3.6-8 8-8h48zM48 280h56V432H56c-4.4 0-8-3.6-8-8V280zM152 432V280h48V432H152zm96 0V280h48V432H248zm96 0V280h56V424c0 4.4-3.6 8-8 8H344zm56-200H344V80h48c4.4 0 8 3.6 8 8V232zM296 80V232H248V80h48zm-96 0V232H152V80h48z"/></svg>

<svg xmlns="http://www.w3.org/2000/svg" viewBox="0 0 448 512"><!--! Font Awesome Pro 6.6.0 by @fontawesome - https://fontawesome.com License - https://fontawesome.com/license (Commercial License) Copyright 2024 Fonticons, Inc. --><path d="M56 32C25.1 32 0 57.1 0 88L0 256 0 424c0 30.9 25.1 56 56 56l72 0 96 0 96 0 72 0c30.9 0 56-25.1 56-56l0-168 0-168c0-30.9-25.1-56-56-56l-72 0-96 0-96 0L56 32zm48 48l0 152-56 0L48 88c0-4.4 3.6-8 8-8l48 0zM48 280l56 0 0 152-48 0c-4.4 0-8-3.6-8-8l0-144zM152 432l0-152 48 0 0 152-48 0zm96 0l0-152 48 0 0 152-48 0zm96 0l0-152 56 0 0 144c0 4.4-3.6 8-8 8l-48 0zm56-200l-56 0 0-152 48 0c4.4 0 8 3.6 8 8l0 144zM296 80l0 152-48 0 0-152 48 0zm-96 0l0 152-48 0 0-152 48 0z"/></svg>
